X: 2200
T: LADY ELIZABETH LINDSAY
C: NATH GOW.
Q: "Strathspey."
R: Strathspey.
%R: strathspey
B: James Kerr "Merry Melodies" v.2 p.23 #200
Z: 2016 John Chambers <jc:trillian.mit.edu>
M: C
L: 1/8
K: Bb
ug |\
vf<Bd>uc vB<GG>uB | vF>vBuD>uB vF<DD>ug |\
f<Bd>c B<GG>B | F>BD>d c3 ::\
ug |\
vf<dd>ue vf<dd>ug |
vf<dd>ue vf>vgud>ub |\
[1 f<dd>e f>gd>b | f<dd>B c3 :|\
[2 g>bf>g d>fc>f | G>BF>D C3 |]
